X:1
T:Hallelujah
T:Hallelujah
T:William James Kirkpatrick
T:William Giles Collins, 1885
T:Public Domain Courtesy of the Cyber Hymnal™
C:William James Kirkpatrick
Z:Public Domain
Z:Courtesy of the Cyber Hymnal™
%%score 1 ( 2 3 )
L:1/8
Q:1/4=108
M:3/4
K:E
V:1 treble 
V:2 bass 
V:3 bass 
V:1
 B,>B, | [B,E]2 [B,E]2 [B,F]2 | [EG]4 [B,F]>[B,E] | [DF]2 [DF]2 [EG]2 | [FA]4 [EG]>[DF] | %5
w: 1.~I am|glad, oh, so|glad, That to|Je- sus I|came; He has|
w: 2.~Oh, the|full- ness of|joy My Re-|deem- er to|know, And to|
w: 3.~Per- fect|peace in my|heart Je- sus|now gives to|me, From all|
w: 4.~Sav- ior,|keep me, I|pray, Ev- er|keep me Thine|own, Till I|
 [EG]2 [EG]2 [DA]2 | [EB]4 [EG]>[EG] | [DF]2 [DB]2 [C^A]2 | [DB]4 ||"^Refrain" [EB]>[EB] | %10
w: par- doned my|sins, I can|now praise His|name.||
w: feel that His|blood Makes me|whit- er than|snow.||
w: fear- ing and|doubt- ing, My|spir- it is|free.||
w: join the glad|song Of the|blest round Thy|throne.||
 [Ge]2 [Ge]2 [Bd]>[Ac] | [GB]2 [EG]2 [EB]>[EB] | [Ec]2 [EB]2 [EG]2 | [EG]2 [DF]2 [DB]>[AB] | %14
w: ||||
w: ||||
w: ||||
w: ||||
 [Ge]2 [Ge]2 [Bd]>[Ac] | [GB]2 [EG]2 [EB]>[EB] | [DB]2 [DA]2 [DF]2 | [B,E]4 |] %18
w: ||||
w: ||||
w: ||||
w: ||||
V:2
 [E,G,]>[E,G,] | [E,G,]2 [E,G,]2 [E,A,]2 | [E,B,]4 [E,A,]>[E,G,] | [B,,B,]2 [B,,B,]2 [B,,B,]2 | %4
w: ||||
 [B,,B,]4 [B,,B,]>[B,,B,] | [E,B,]2 [E,B,]2 [F,B,]2 | [G,B,]4 [E,B,]>[E,B,] | [F,B,]2 F,2 F,2 | %8
w: |||* Hal- le-|
 [B,,F,]4 || [E,G,]>[E,G,] | [E,B,]2 [E,B,]2 [E,B,]>[E,B,] | [E,E]2 [E,B,]2 [E,G,]>[E,G,] | %12
w: |lu- jah,|Je- sus saves me,|With a per- fect|
 A,2 [G,B,]2 [E,B,]2 | [B,,B,]2 [B,,B,]2 B,>B, | [E,B,]2 [E,B,]2 [E,B,]>[E,B,] | %15
w: sal- va- tion;|Hal- le- lu- jah,|hal- le- lu- jah,|
 [E,E]2 [E,B,]2 [E,G,]>[E,G,] | [B,,F,]2 [B,,F,]2 [B,,A,]2 | [E,G,]4 |] %18
w: Je- sus saves me|just now. *||
V:3
 x2 | x6 | x6 | x6 | x6 | x6 | x6 | x2 F,2 F,2 | x4 || x2 | x6 | x6 | A,2 x4 | x4 B,>B, | x6 | x6 | %16
 x6 | x4 |] %18

